X:0283
T:Staten Island Hornpipe.
M:C|
L:1/8
Q:1/2=96
I: || ::
Z:Jack Campin * www.campin.me.uk * 2009
K:D
AG|FDFG A2A2|defd c2Ac| B2GB A2FA|G2E2  E2
AG|FDFG A2A2|defd c2A2| d2d2 efge| f2d2 d2 ||
fg|a2fa g2eg|f2df e2A2|=c2c2 efge|=c2c2 efge|
   a2fa g2eg|f2df e2A2| d2d2 efge| f2d2 d2 :|
<end>
<start>
